X:37
T: ES BLIES EIN JAEGER WOL IN SEIN HORN
N: E0019C
O: Europa, Mitteleuropa, Deutschland, Coethen
R: Sage, Maerchen -, Zauber - Lied
M: 4/4
L: 1/8
K: F
C2 | F2F2A2AB | c2cBA2
f2 | c3BA2B2 | c4z2
Ac | cBBAG2GB | A2G2F2
C2 | F3GA2F2 | G3AB2
c2 | AAAAG2G2 | F2f2c3
B | AAAAG2G2 | F4z2

@@@ Tune index: 3687
